X: 8262
T: Cork Hill
R: jig
M: 6/8
K: Dmajor
|:{g}A{d}A{e}A {g}e2 f|{g}ec{G}c {g}e2 f|{g}A{d}A{e}A {g}e2 f|{g}ec{G}c cc B|
{g}A{d}A{e}A {g}e2 f|{g}ec{G}c {g}e2 f|{g}A{d}A{e}A d2 f|{g}ec{G}c cc B:|
|:{g}Ace aec|aec aec|{g}Ace aec|aec cc B|
{g}Ace aec|aec aec|{g}A{d}A{e}A d2 f|{g}ec{G}c cc B:|
|:{g}A{G}{G}A2 {g}ec{G}c|{g}fd{c}d ec{G}c|{g}A{G}{G}A2 {g}ec{G}c|ec{G}c cc B|
{g}A{G}{G}A2 {g}ec{G}c|{g}fd{c}d ec{G}c|{g}A{G}{G}A2 d2 f|ec{G}c cc B:|
|:{g}A{d}A{e}A ac{G}c|{g}ec{G}c ac{G}c|{g}A{d}A{e}A ac{G}c|{g}ec{G}c cc B|
{g}A{d}A{e}A ac{G}c|{g}ec{G}c ac{G}c|:{g}A{d}A{e}A d2 f|{g}ec{G}c cc B:|

